X:2274
T:The loss of Herring Fleet
C:John Quayle, Gordon, Patrick
C:Traditional
O:Isle of Man
Z:Clague Collection
B:Kiaull Vannin #274
N:See also KV 224,244,259,284,391,392
M:3/4 
L:1/4 
K:G
B/A/|GG E|D2 B/A/|GG E|D2 A/B/|cd c|BB B|B!fermata!A A/B/|
cd c|B2 G|GG E|D2 G/A/|BB B| AB A|AG||

